picto/escalator-down-right-framed.svg

<svg class="color-immutable" width="30" height="30" viewBox="0 0 30 30" fill="none" xmlns="http://www.w3.org/2000/svg"><path d="M29.9999 0H0V29.9999H29.9999V0Z" fill="#2D327D"/><path d="M25.4999 2.99999C26.3249 2.99999 26.9999 3.67499 26.9999 4.49999V25.4999C26.9999 26.3249 26.3249 26.9999 25.4999 26.9999H4.49999C3.67499 26.9999 2.99999 26.3249 2.99999 25.4999V4.49999C2.99999 3.67499 3.67499 2.99999 4.49999 2.99999H25.4999ZM25.4999 2.62499H4.49999C3.46612 2.62499 2.62499 3.46612 2.62499 4.49999V25.4999C2.62499 26.5338 3.46612 27.3749 4.49999 27.3749H25.4999C26.5338 27.3749 27.3749 26.5338 27.3749 25.4999V4.49999C27.3749 3.46612 26.5338 2.62499 25.4999 2.62499Z" fill="white"/><path d="M13.9073 7.97788C13.3691 7.97788 12.9323 7.54108 12.9323 7.00288C12.9323 6.46468 13.3691 6.02789 13.9073 6.02789C14.4456 6.02789 14.8823 6.46468 14.8823 7.00288C14.8823 7.54108 14.4456 7.97788 13.9073 7.97788Z" fill="white"/><path d="M17.6681 10.4052C17.1299 10.4052 16.6931 9.96837 16.6931 9.43018C16.6931 8.89198 17.1299 8.45518 17.6681 8.45518C18.2062 8.45518 18.6431 8.89198 18.6431 9.43018C18.6431 9.96837 18.2063 10.4052 17.6681 10.4052Z" fill="white"/><path d="M21.4286 10.943C21.9668 10.943 22.4036 11.3798 22.4036 11.918C22.4036 12.4562 21.9668 12.893 21.4286 12.893C20.8904 12.893 20.4536 12.4562 20.4536 11.918C20.4536 11.3798 20.8904 10.943 21.4286 10.943Z" fill="white"/><path d="M15.8492 11.3821C15.8744 11.4483 15.8873 11.5184 15.8873 11.5892C15.8873 11.91 15.6269 12.1704 15.3061 12.1704C15.0649 12.1704 14.8489 12.0215 14.7629 11.7963L14.0639 9.96275L13.7135 10.0965L14.0276 10.9202L12.7497 10.0785V9.44285C12.7497 8.81352 13.2605 8.30285 13.8899 8.30285C14.3627 8.30285 14.7866 8.59482 14.955 9.0368L15.8492 11.3821Z" fill="white"/><path d="M19.5992 13.8521C19.6245 13.9182 19.6374 13.9884 19.6374 14.0592C19.6374 14.3802 19.377 14.6405 19.0561 14.6405C18.815 14.6405 18.5989 14.4917 18.513 14.2664L17.814 12.433L17.4637 12.5666L17.7778 13.3905L16.5 12.5488V11.9132C16.5 11.2838 17.0107 10.7732 17.64 10.7732C18.1129 10.7732 18.5367 11.0652 18.7053 11.507L19.5992 13.8521Z" fill="white"/><path d="M20.2499 15.0187V14.3831C20.2499 13.7538 20.7606 13.2431 21.3899 13.2431C21.8629 13.2431 22.2866 13.5351 22.4551 13.9769L23.3492 16.3222C23.3744 16.3883 23.3873 16.4586 23.3873 16.5294C23.3873 16.8501 23.127 17.1105 22.8061 17.1105C22.565 17.1105 22.3489 16.9616 22.2629 16.7362L21.564 14.9028L21.2136 15.0364L21.5277 15.8603L20.2499 15.0187Z" fill="white"/><path d="M8.62481 15.75C7.17574 15.75 5.99974 14.5739 5.99974 13.1249C5.99974 11.6759 7.17574 10.4998 8.62481 10.4998H11.6205C11.8405 10.4998 12.0556 10.5643 12.2394 10.6854L23.9999 18.4319V23.9999L11.4748 15.75H8.62481Z" fill="white"/></svg>

<svg class="color-immutable" width="30" height="30" viewBox="0 0 30 30" fill="none" xmlns="http://www.w3.org/2000/svg"><path d="M30 0H0v30h30V0Z" fill="#2D327D"/><path d="M25.5 3c.825 0 1.5.675 1.5 1.5v21c0 .825-.675 1.5-1.5 1.5h-21c-.825 0-1.5-.675-1.5-1.5v-21C3 3.675 3.675 3 4.5 3h21Zm0-.375h-21A1.877 1.877 0 0 0 2.625 4.5v21c0 1.034.841 1.875 1.875 1.875h21a1.877 1.877 0 0 0 1.875-1.875v-21A1.877 1.877 0 0 0 25.5 2.625Z" fill="#fff"/><path d="M13.907 7.978a.975.975 0 1 1 .001-1.95.975.975 0 0 1 0 1.95ZM17.668 10.405a.975.975 0 1 1 0-1.95.975.975 0 0 1 0 1.95ZM21.429 10.943a.975.975 0 1 1-.001 1.95.975.975 0 0 1 0-1.95ZM15.85 11.382a.582.582 0 0 1-1.087.414l-.7-1.833-.35.134.315.823-1.278-.841v-.636a1.14 1.14 0 0 1 2.205-.406l.894 2.345ZM19.6 13.852a.58.58 0 0 1-.544.788.581.581 0 0 1-.543-.374l-.699-1.833-.35.134.314.823-1.278-.841v-.636a1.14 1.14 0 0 1 2.205-.406l.894 2.345ZM20.25 15.019v-.636a1.14 1.14 0 0 1 2.205-.406l.894 2.345a.582.582 0 0 1-1.086.414l-.699-1.833-.35.133.314.824-1.278-.841ZM8.625 15.75a2.626 2.626 0 0 1 0-5.25h2.995c.22 0 .436.064.62.185L24 18.432V24l-12.525-8.25h-2.85Z" fill="#fff"/></svg>
